X: 467
T: All hands around
C:anon.
O:Ireland
B:Francis O'Neill: "The Dance Music of Ireland" (1907) no. 467
R:Reel
Z:Transcribed by Frank Nordberg - http://www.musicaviva.com
F:http://www.musicaviva.com/abc/tunes/ireland/oneill-1001/oneill-1001-046
7.abc
M:C|
L:1/8
K:G
G2Be d2Bd|gdBd cAFA|G2Be d2Bd|dcAB GDEF|G2Be d2Bd|gdBd cAFA|GBAc (3Bcd eg
|fdcA G3 z||
||bagb a2(fa)|gfeg (fd)d2|bagb a2(fa)|gfef d2(ga)|bagb a2(fa)|gfeg fdBA|G
BAc (3Bcd eg|fdcA G3 z|]
W:
W:
W:  From Musica Viva - http://www.musicaviva.com
W:  the Internet center for free sheet music downloads.


